docs/static/img/roles/service.svg

<?xml version="1.0" encoding="UTF-8"?>
<svg width="900px" height="278px" viewBox="0 0 900 278" version="1.1" xmlns="http://www.w3.org/2000/svg" xmlns:xlink="http://www.w3.org/1999/xlink">
    <!-- Generator: Sketch 59.1 (86144) - https://sketch.com -->
    <title>Centralized Service</title>
    <desc>Created with Sketch.</desc>
    <defs>
        <linearGradient x1="100%" y1="50%" x2="0%" y2="50%" id="linearGradient-1">
            <stop stop-color="#00DEFF" offset="0%"></stop>
            <stop stop-color="#000000" offset="100%"></stop>
        </linearGradient>
        <linearGradient x1="100%" y1="50%" x2="0%" y2="50%" id="linearGradient-2">
            <stop stop-color="#00DEFF" offset="0%"></stop>
            <stop stop-color="#000000" offset="100%"></stop>
        </linearGradient>
        <linearGradient x1="100%" y1="50%" x2="0%" y2="50%" id="linearGradient-3">
            <stop stop-color="#00DEFF" offset="0%"></stop>
            <stop stop-color="#000000" offset="100%"></stop>
        </linearGradient>
        <linearGradient x1="100%" y1="50%" x2="0%" y2="50%" id="linearGradient-4">
            <stop stop-color="#00DEFF" offset="0%"></stop>
            <stop stop-color="#000000" offset="100%"></stop>
        </linearGradient>
        <linearGradient x1="100%" y1="50%" x2="0%" y2="50%" id="linearGradient-5">
            <stop stop-color="#00DEFF" offset="0%"></stop>
            <stop stop-color="#000000" offset="100%"></stop>
        </linearGradient>
        <linearGradient x1="100%" y1="50%" x2="0%" y2="50%" id="linearGradient-6">
            <stop stop-color="#00DEFF" offset="0%"></stop>
            <stop stop-color="#000000" offset="100%"></stop>
        </linearGradient>
        <linearGradient x1="100%" y1="50%" x2="0%" y2="50%" id="linearGradient-7">
            <stop stop-color="#00DEFF" offset="0%"></stop>
            <stop stop-color="#000000" offset="100%"></stop>
        </linearGradient>
        <linearGradient x1="100%" y1="50%" x2="0%" y2="50%" id="linearGradient-8">
            <stop stop-color="#00DEFF" offset="0%"></stop>
            <stop stop-color="#000000" offset="100%"></stop>
        </linearGradient>
    </defs>
    <g id="Role:-Centralized-Service" stroke="none" stroke-width="1" fill="none" fill-rule="evenodd">
        <g id="Diagram" transform="translate(0.000000, -63.000000)">
            <g id="Centralized-Service" transform="translate(-168.000000, 23.000000)">
                <g id="Vector" transform="translate(514.000000, 106.000000)">
                    <polygon id="Stroke-1" stroke-opacity="0.152671547" stroke="#000000" stroke-linecap="round" stroke-linejoin="round" points="0.596470588 99.8750881 96.8670588 139.436604 193.135686 99.8750881 96.8670588 60.3093852"></polygon>
                    <polygon id="Stroke-7" stroke-opacity="0.152671547" stroke="#000000" stroke-linecap="round" stroke-linejoin="round" points="96.6672549 0.524918578 193.606471 40.5233234 193.135882 99.8746693 96.8672549 60.3089664"></polygon>
                    <polygon id="Stroke-9" stroke-opacity="0.152671547" stroke="#000000" stroke-linecap="round" stroke-linejoin="round" points="0.941176471 40.0098039 0.941176471 99.8720173 96.8670588 60.2532735 96.6670588 0.525058159"></polygon>
                    <polygon id="Fill-11" fill-opacity="0.0739182692" fill="#000000" points="0.596470588 99.8750881 0.396470588 40.0910402 96.8670588 0.503981389 193.74549 40.4890701 193.427529 99.7355068 96.8670588 139.436604"></polygon>
                    <polygon id="Stroke-13" stroke-opacity="0.152671547" stroke="#000000" stroke-linecap="round" stroke-linejoin="round" points="0.596470588 99.8750881 0.396470588 40.0910402 96.8670588 0.503953473 193.74549 40.4890701 193.427451 99.7355068 96.8670588 139.436604"></polygon>
                    <g transform="translate(34.000000, 29.529412)" fill-opacity="0.6">
                        <polygon id="Fill-21" fill="#10E7FF" points="0.275967078 63.0221001 62.6685802 88.1123655 125.059753 63.0221001 62.6685802 37.9291279"></polygon>
                        <polygon id="Fill-22" fill="#10E7FF" points="-1.13686838e-13 25.0549614 -1.13686838e-13 63.0201525 63.3744856 88.1157325 63.3744856 50.4745164"></polygon>
                        <polygon id="Fill-23" fill="#10E7FF" points="63.3744856 50.4748465 125.365679 25.3810986 125.060617 63.0221826 63.3744856 88.1159966"></polygon>
                        <polygon id="Fill-24" fill="#10E7FF" points="62.5389506 0.013368984 125.364959 25.3806034 125.059897 63.021836 62.6685802 37.9289628"></polygon>
                        <polygon id="Fill-25" fill="#10E7FF" points="-1.70530257e-13 25.0549614 -1.70530257e-13 63.0201525 62.6685802 37.8936423 62.5389506 0.013368984"></polygon>
                        <polygon id="Fill-26" fill="#10E7FF" points="0.275967078 63.0221001 0.146337449 25.1064567 62.6685802 -4.26325641e-13 125.454979 25.358982 125.248868 62.9335677 62.6685802 88.1123655"></polygon>
                        <polygon id="Fill-21-Copy" fill="#00C1D8" points="0.275967078 25.206974 62.6685802 50.2972394 125.059753 25.206974 62.6685802 0.11400183"></polygon>
                    </g>
                    <polygon id="Stroke-3" stroke-opacity="0.152671547" stroke="#000000" stroke-linecap="round" stroke-linejoin="round" points="0.941176471 40.0098039 0.941176471 99.8720173 97.0196078 139.441908 97.0196078 80.0905616"></polygon>
                    <polygon id="Stroke-5" stroke-opacity="0.152671547" stroke="#000000" stroke-linecap="round" stroke-linejoin="round" points="97.0196078 80.0909804 193.607647 40.5238817 193.137059 99.8752277 97.0196078 139.442326"></polygon>
                </g>
                <g id="Logo" transform="translate(577.000000, 47.000000)" fill="#10E7FF">
                    <polygon id="Rectangle" points="56.7252722 0 66.7327728 5.56344142e-13 42.8996397 39.305191 37.954892 31.1715113"></polygon>
                    <polygon id="Triangle-Copy" transform="translate(23.707696, 19.549161) scale(1, -1) translate(-23.707696, -19.549161) " points="23.7076956 9.09494702e-13 47.4153912 39.0983216 35.5899698 39.0983216 23.9502082 19.9835866 12.3048123 39.0983216 0 39.0983216"></polygon>
                </g>
                <g id="Lines" transform="translate(0.000000, 36.000000)" fill-rule="nonzero">
                    <path d="M520.689146,138.904518 C386.619611,113.547978 295.122981,88.3620522 246.163662,63.3102905 C194.924832,37.0921364 167.581376,16.619518 164.163642,1.79572613 L164,1.08596059 L166.850323,0.922965421 L167.013965,1.63273096 C170.337704,16.0488363 197.396149,36.308061 248.219647,62.3136957 C296.820302,87.1819348 387.990329,112.278241 521.694139,137.566169 L524.706471,133.554645 L540,141.742337 L517.671615,142.922965 L520.689146,138.904518 L520.689146,138.904518 Z" id="Line" fill="url(#linearGradient-1)"></path>
                    <path d="M520.147867,139.76933 C377.019531,121.482811 275.267174,98.2534081 214.878502,70.0501944 C152.081785,40.7223552 106.51416,22.2040952 78.2594752,14.5160185 L77,14.1733164 L78.380812,12.9229654 L79.6402871,13.2656676 C108.172435,21.0292418 153.880035,39.6043863 216.846934,69.0117053 C276.816992,97.0194143 378.154121,120.154543 520.846032,138.386166 L522.938335,134.241021 L540,141.507819 L518.051279,143.922965 L520.147867,139.76933 L520.147867,139.76933 Z" id="Line" fill="url(#linearGradient-2)"></path>
                    <path d="M519.933056,141.707268 C372.704043,129.026229 262.837966,109.768317 190.3225,83.91188 C114.824344,56.9919213 69.7682331,41.1836994 55.2050526,36.5043653 L54,36.1171667 L55.5628679,34.9229654 L56.7679205,35.3101641 C71.3888108,40.008041 116.449311,55.8178032 192.000305,82.7566018 C264.10501,108.466576 373.578187,127.656086 520.407513,140.303481 L521.829356,136.096647 L540,142.655422 L518.508217,145.922965 L519.933056,141.707268 L519.933056,141.707268 Z" id="Line" fill="url(#linearGradient-3)"></path>
                    <path d="M519.86475,142.649849 C368.517308,136.277141 254.64057,121.506653 178.217158,98.315554 C98.3048273,74.0657243 57.2256333,53.2560194 55.0868866,35.721735 L55,35.0094049 L57.8640571,34.9229654 L57.9509436,35.6352955 C60.0125421,52.5370884 100.563615,73.0792604 179.711474,97.0971069 C255.690321,120.1533 369.155374,134.870846 520.089258,141.226918 L520.762072,136.962634 L540,142.724521 L519.190543,146.922965 L519.86475,142.649849 Z" id="Line" fill="url(#linearGradient-4)"></path>
                    <path d="M519.932391,142.647115 C332.463995,144.005826 202.179696,131.636107 129.025387,105.480367 C54.4226233,78.8067444 12.9659958,85.1433159 3.02731644,124.595592 L2.84929278,125.302269 L0,125.125657 L0.178023657,124.418979 C10.4110126,83.7984213 54.4625383,77.0652242 130.704413,104.324898 C203.236783,130.258268 332.978348,142.576841 519.875007,141.223033 L519.703008,136.954531 L540,141.739501 L520.104686,146.922965 L519.932391,142.647115 L519.932391,142.647115 Z" id="Line" fill="url(#linearGradient-5)"></path>
                    <path d="M520.593079,280.880292 C386.580357,256.843593 295.115373,232.324892 246.163677,207.28657 C194.924841,181.078398 167.581382,160.613574 164.163646,145.795419 L164,145.085906 L166.850322,144.922965 L167.013968,145.632478 C170.337705,160.043084 197.396146,180.29459 248.219637,206.290318 C296.798885,231.138136 387.920885,255.565208 521.55119,279.53392 L524.422894,275.498497 L540,283.549632 L517.716215,284.922965 L520.593079,280.880292 L520.593079,280.880292 Z" id="Line-Copy-5" fill="url(#linearGradient-6)" transform="translate(352.000000, 214.922965) scale(1, -1) translate(-352.000000, -214.922965) "></path>
                    <path d="M520.147867,269.76933 C377.019531,251.482811 275.267174,228.253408 214.878502,200.050194 C152.081785,170.722355 106.51416,152.204095 78.2594752,144.516019 L77,144.173316 L78.380812,142.922965 L79.6402871,143.265668 C108.172435,151.029242 153.880035,169.604386 216.846934,199.011705 C276.816992,227.019414 378.154121,250.154543 520.846032,268.386166 L522.938335,264.241021 L540,271.507819 L518.051279,273.922965 L520.147867,269.76933 L520.147867,269.76933 Z" id="Line-Copy-4" fill="url(#linearGradient-2)" transform="translate(308.500000, 208.422965) scale(1, -1) translate(-308.500000, -208.422965) "></path>
                    <path d="M519.911943,246.687624 C372.696361,234.846471 262.837027,215.973535 190.322488,190.046401 C114.824332,163.052494 69.7682221,147.200847 55.2050418,142.508659 L54,142.1204 L55.562901,140.922965 L56.7679428,141.311224 C71.3888331,146.022006 116.449333,161.875197 192.000326,188.887996 C264.093555,214.664493 373.548257,233.468411 520.352981,245.277341 L521.674626,241.05119 L540,247.520934 L518.587424,250.922965 L519.911943,246.687624 L519.911943,246.687624 Z" id="Line-Copy-3" fill="url(#linearGradient-7)" transform="translate(297.000000, 195.922965) scale(1, -1) translate(-297.000000, -195.922965) "></path>
                    <path d="M519.865233,245.646078 C368.522035,240.589054 254.64482,226.480102 178.21713,203.295146 C98.3048151,179.053101 57.2256265,158.250074 55.0868826,140.721439 L55,140.009369 L57.8640576,139.922965 L57.9509402,140.635035 C60.0125416,157.531429 100.563621,178.067014 179.711496,202.07716 C255.677776,225.122144 369.125912,239.178424 520.039445,244.221924 L520.561516,239.954089 L540,245.544898 L519.342055,249.922965 L519.865233,245.646078 L519.865233,245.646078 Z" id="Line-Copy-2" fill="url(#linearGradient-8)" transform="translate(297.500000, 194.922965) scale(1, -1) translate(-297.500000, -194.922965) "></path>
                    <path d="M519.932391,194.647115 C332.463995,196.005826 202.179696,183.636107 129.025387,157.480367 C54.4226233,130.806744 12.9659958,137.143316 3.02731644,176.595592 L2.84929278,177.302269 L0,177.125657 L0.178023657,176.418979 C10.4110126,135.798421 54.4625383,129.065224 130.704413,156.324898 C203.236783,182.258268 332.978348,194.576841 519.875007,193.223033 L519.703008,188.954531 L540,193.739501 L520.104686,198.922965 L519.932391,194.647115 L519.932391,194.647115 Z" id="Line-Copy" fill="url(#linearGradient-5)" transform="translate(270.000000, 169.422965) scale(1, -1) translate(-270.000000, -169.422965) "></path>
                    <polygon id="Line-5" fill="#10E7FF" points="1030 127 1069 146.5 1030 166 1030 150 679 150 679 143 1030 143"></polygon>
                </g>
                <g id="Text" transform="translate(345.000000, 0.000000)"></g>
            </g>
        </g>
    </g>
</svg>

<svg width="900" height="278" viewBox="0 0 900 278" xmlns="http://www.w3.org/2000/svg">
  <defs>
    <linearGradient x1="100%" y1="50%" x2="0%" y2="50%" id="a">
      <stop stop-color="#00DEFF" offset="0%"/>
      <stop stop-color="#000000" offset="100%"/>
    </linearGradient>
    <linearGradient x1="100%" y1="50%" x2="0%" y2="50%" id="b">
      <stop stop-color="#00DEFF" offset="0%"/>
      <stop stop-color="#000000" offset="100%"/>
    </linearGradient>
    <linearGradient x1="100%" y1="50%" x2="0%" y2="50%" id="c">
      <stop stop-color="#00DEFF" offset="0%"/>
      <stop stop-color="#000000" offset="100%"/>
    </linearGradient>
    <linearGradient x1="100%" y1="50%" x2="0%" y2="50%" id="d">
      <stop stop-color="#00DEFF" offset="0%"/>
      <stop stop-color="#000000" offset="100%"/>
    </linearGradient>
    <linearGradient x1="100%" y1="50%" x2="0%" y2="50%" id="e">
      <stop stop-color="#00DEFF" offset="0%"/>
      <stop stop-color="#000000" offset="100%"/>
    </linearGradient>
    <linearGradient x1="100%" y1="50%" x2="0%" y2="50%" id="f">
      <stop stop-color="#00DEFF" offset="0%"/>
      <stop stop-color="#000000" offset="100%"/>
    </linearGradient>
    <linearGradient x1="100%" y1="50%" x2="0%" y2="50%" id="g">
      <stop stop-color="#00DEFF" offset="0%"/>
      <stop stop-color="#000000" offset="100%"/>
    </linearGradient>
    <linearGradient x1="100%" y1="50%" x2="0%" y2="50%" id="h">
      <stop stop-color="#00DEFF" offset="0%"/>
      <stop stop-color="#000000" offset="100%"/>
    </linearGradient>
  </defs>
  <g fill="none" fill-rule="evenodd">
    <path stroke-opacity=".153" stroke="#000000" stroke-linecap="round" stroke-linejoin="round" d="M346.596 165.875l96.271 39.562 96.269-39.562-96.269-39.566z"/>
    <path stroke-opacity=".153" stroke="#000000" stroke-linecap="round" stroke-linejoin="round" d="M442.667 66.525l96.94 39.998-.471 59.352-96.269-39.566z"/>
    <path stroke-opacity=".153" stroke="#000000" stroke-linecap="round" stroke-linejoin="round" d="M346.941 106.01v59.862l95.926-39.619-.2-59.728z"/>
    <path fill-opacity=".074" fill="#000000" d="M346.596 165.875l-.2-59.784 96.471-39.587 96.878 39.985-.317 59.247-96.56 39.7z"/>
    <path stroke-opacity=".153" stroke="#000000" stroke-linecap="round" stroke-linejoin="round" d="M346.596 165.875l-.2-59.784 96.471-39.587 96.878 39.985-.318 59.247-96.56 39.7z"/>
    <g fill-opacity=".6">
      <path fill="#10E7FF" d="M380.276 158.552l62.393 25.09 62.39-25.09-62.39-25.093z"/>
      <path fill="#10E7FF" d="M380 120.584v37.966l63.374 25.095v-37.641zM443.374 146.004l61.992-25.093-.305 37.64-61.687 25.094z"/>
      <path fill="#10E7FF" d="M442.539 95.543l62.826 25.367-.305 37.641-62.391-25.093z"/>
      <path fill="#10E7FF" d="M380 120.584v37.966l62.669-25.127-.13-37.88z"/>
      <path fill="#10E7FF" d="M380.276 158.552l-.13-37.916 62.523-25.107 62.786 25.36-.206 37.574-62.58 25.179z"/>
      <path fill="#00C1D8" d="M380.276 120.736l62.393 25.09 62.39-25.09-62.39-25.093z"/>
    </g>
    <path stroke-opacity=".153" stroke="#000000" stroke-linecap="round" stroke-linejoin="round" d="M346.941 106.01v59.862l96.079 39.57V146.09z"/>
    <path stroke-opacity=".153" stroke="#000000" stroke-linecap="round" stroke-linejoin="round" d="M443.02 146.091l96.588-39.567-.47 59.351-96.118 39.567z"/>
    <g fill="#10E7FF">
      <path d="M465.725 7h10.008L451.9 46.305l-4.945-8.133zM432.708 46.098L456.415 7H444.59l-11.64 19.115L421.305 7H409z"/>
    </g>
    <g fill-rule="nonzero">
      <path d="M520.69 138.905C386.62 113.548 295.122 88.362 246.163 63.31c-51.24-26.218-78.583-46.69-82-61.514l-.164-.71 2.85-.163.164.71c3.324 14.416 30.382 34.675 81.206 60.68 48.6 24.869 139.77 49.965 273.474 75.253l3.012-4.011L540 141.742l-22.328 1.181 3.017-4.018z" fill="url(#a)" transform="translate(-168 -4)"/>
      <path d="M520.148 139.77c-143.128-18.287-244.88-41.517-305.27-69.72C152.083 40.722 106.515 22.204 78.26 14.516L77 14.173l1.38-1.25 1.26.343c28.532 7.763 74.24 26.338 137.207 55.746 59.97 28.007 161.307 51.143 303.999 69.374l2.092-4.145L540 141.508l-21.949 2.415 2.097-4.154z" fill="url(#b)" transform="translate(-168 -4)"/>
      <path d="M519.933 141.707c-147.229-12.68-257.095-31.939-329.61-57.795-75.499-26.92-120.555-42.728-135.118-47.408L54 36.117l1.563-1.194 1.205.387C71.388 40.008 116.449 55.818 192 82.757c72.105 25.71 181.578 44.9 328.408 57.546l1.421-4.206L540 142.655l-21.492 3.268 1.425-4.216z" fill="url(#c)" transform="translate(-168 -4)"/>
      <path d="M519.865 142.65c-151.348-6.373-265.224-21.143-341.648-44.334-79.912-24.25-120.991-45.06-123.13-62.594L55 35.009l2.864-.086.087.712c2.062 16.902 42.613 37.444 121.76 61.462 75.98 23.056 189.444 37.774 340.378 44.13l.673-4.264L540 142.725l-20.81 4.198.675-4.273z" fill="url(#d)" transform="translate(-168 -4)"/>
      <path d="M519.932 142.647c-187.468 1.359-317.752-11.01-390.907-37.167C54.423 78.807 12.966 85.143 3.027 124.596l-.178.706L0 125.126l.178-.707c10.233-40.62 54.285-47.354 130.526-20.094 72.533 25.933 202.274 38.252 389.171 36.898l-.172-4.268L540 141.74l-19.895 5.183-.173-4.276z" fill="url(#e)" transform="translate(-168 -4)"/>
      <path d="M520.593 280.88c-134.013-24.036-225.478-48.555-274.43-73.593-51.238-26.209-78.582-46.673-82-61.492l-.163-.71 2.85-.162.164.71c3.324 14.41 30.382 34.662 81.206 60.657 48.579 24.848 139.7 49.275 273.331 73.244l2.872-4.036L540 283.55l-22.284 1.373 2.877-4.043z" fill="url(#f)" transform="matrix(1 0 0 -1 -168 425.846)"/>
      <path d="M520.148 269.77c-143.128-18.287-244.88-41.517-305.27-69.72-62.796-29.328-108.364-47.846-136.619-55.534L77 144.173l1.38-1.25 1.26.343c28.532 7.763 74.24 26.338 137.207 55.746 59.97 28.007 161.307 51.143 303.999 69.374l2.092-4.145L540 271.508l-21.949 2.415 2.097-4.154z" fill="url(#b)" transform="matrix(1 0 0 -1 -168 412.846)"/>
      <path d="M519.912 246.688c-147.216-11.842-257.075-30.714-329.59-56.642-75.498-26.994-120.554-42.845-135.117-47.537L54 142.12l1.563-1.197 1.205.388c14.62 4.711 59.681 20.564 135.232 47.577 72.094 25.776 181.548 44.58 328.353 56.39l1.322-4.227 18.325 6.47-21.413 3.402 1.325-4.235z" fill="url(#g)" transform="matrix(1 0 0 -1 -168 387.846)"/>
      <path d="M519.865 245.646c-151.343-5.057-265.22-19.166-341.648-42.35-79.912-24.243-120.991-45.046-123.13-62.575L55 140.01l2.864-.086.087.712c2.062 16.896 42.613 37.432 121.76 61.442 75.967 23.045 189.415 37.101 340.328 42.145l.523-4.268 19.438 5.59-20.658 4.379.523-4.277z" fill="url(#h)" transform="matrix(1 0 0 -1 -168 385.846)"/>
      <path d="M519.932 194.647c-187.468 1.359-317.752-11.01-390.907-37.167-74.602-26.673-116.059-20.337-125.998 19.116l-.178.706L0 177.126l.178-.707c10.233-40.62 54.285-47.354 130.526-20.094 72.533 25.933 202.274 38.252 389.171 36.898l-.172-4.268L540 193.74l-19.895 5.183-.173-4.276z" fill="url(#e)" transform="matrix(1 0 0 -1 -168 334.846)"/>
      <path fill="#10E7FF" d="M862 123l39 19.5-39 19.5v-16H511v-7h351z"/>
    </g>
  </g>
</svg>
